assets/src/edit-story/icons/radio.svg

<svg fill="none" height="24" viewBox="-2 -2 24 24" width="24" xmlns="http://www.w3.org/2000/svg"><path clip-rule="evenodd" d="m0 10.0002c0-5.52002 4.48-10.00001689 10-10.00001689s10 4.47999689 10 10.00001689c0 5.52-4.48 10-10 10s-10-4.48-10-10zm1.99991.0002c0 4.42 3.58 8 8 8 4.41999 0 7.99999-3.58 7.99999-8 0-4.42003-3.58-8.00003-7.99999-8.00003-4.42 0-8 3.58-8 8.00003z" fill="#fff" fill-rule="evenodd"/></svg>

<svg width="24" height="24" viewBox="-2 -2 24 24" fill="none" xmlns="http://www.w3.org/2000/svg">
  <path fill-rule="evenodd" clip-rule="evenodd" d="M0 10.0002C0 4.48018 4.48 0.000183105 10 0.000183105C15.52 0.000183105 20 4.48018 20 10.0002C20 15.5202 15.52 20.0002 10 20.0002C4.48 20.0002 0 15.5202 0 10.0002ZM1.99991 10.0004C1.99991 14.4204 5.57991 18.0004 9.99991 18.0004C14.4199 18.0004 17.9999 14.4204 17.9999 10.0004C17.9999 5.58037 14.4199 2.00037 9.99991 2.00037C5.57991 2.00037 1.99991 5.58037 1.99991 10.0004Z" fill="white"/>
</svg>
